build/img/category2__img_09.svg

<svg width="64" height="64" viewBox="0 0 64 64" fill="none" xmlns="http://www.w3.org/2000/svg">
<g opacity="0.4">
<path d="M45.419 0H18.5803C15.1645 0 12.3867 2.77781 12.3867 6.19355V10.3226C12.3867 13.3688 14.5988 15.903 17.5005 16.416L16.4631 37.1613H21.6265L22.1942 25.8064H41.805L42.3728 37.1613H47.5361L46.4987 16.416C49.4004 15.903 51.6125 13.3688 51.6125 10.3226V6.19355C51.6125 2.77781 48.8347 0 45.419 0ZM19.6631 35.0968H18.6329L19.5619 16.5161H20.5921L19.6631 35.0968ZM22.6587 16.5161H41.3405L41.4954 19.6129H22.5039L22.6587 16.5161ZM22.2974 23.7419L22.4007 21.6774H41.5986L41.7018 23.7419H22.2974ZM44.3361 35.0968L43.4071 16.5161H44.4373L45.3663 35.0968H44.3361ZM49.548 10.3226C49.548 12.5997 47.6961 14.4516 45.419 14.4516H41.2373H22.7619H18.5803C16.3031 14.4516 14.4512 12.5997 14.4512 10.3226V6.19355C14.4512 3.91639 16.3031 2.06452 18.5803 2.06452H45.419C47.6961 2.06452 49.548 3.91639 49.548 6.19355V10.3226Z" fill="#333333"/>
<path d="M42.3221 40.2581H21.6769H19.6124H15.4834V61.9355C15.4834 63.0741 16.4093 64 17.5479 64H19.6124C20.751 64 21.6769 63.0741 21.6769 61.9355V47.4839H42.3221V61.9355C42.3221 63.0741 43.248 64 44.3866 64H46.4511C47.5897 64 48.5157 63.0741 48.5157 61.9355V40.2581H44.3866H42.3221ZM19.6124 61.9355H17.5479V42.3226H19.6124V47.4839V61.9355ZM21.6769 45.4193V42.3226H42.3221V45.4193H21.6769ZM46.4511 42.3226V61.9355H44.3866V47.4839V42.3226H46.4511Z" fill="#333333"/>
<path d="M21.1607 5.16138C19.7372 5.16138 18.5801 6.31854 18.5801 7.74202C18.5801 9.1655 19.7372 10.3227 21.1607 10.3227C22.5842 10.3227 23.7414 9.1655 23.7414 7.74202C23.7414 6.31854 22.5842 5.16138 21.1607 5.16138ZM21.1607 8.25815C20.8769 8.25815 20.6446 8.02589 20.6446 7.74202C20.6446 7.45815 20.8769 7.22589 21.1607 7.22589C21.4446 7.22589 21.6769 7.45815 21.6769 7.74202C21.6769 8.02589 21.4446 8.25815 21.1607 8.25815Z" fill="#333333"/>
<path d="M42.8385 5.16138C41.415 5.16138 40.2578 6.31854 40.2578 7.74202C40.2578 9.1655 41.415 10.3227 42.8385 10.3227C44.2619 10.3227 45.4191 9.1655 45.4191 7.74202C45.4191 6.31854 44.2619 5.16138 42.8385 5.16138ZM42.8385 8.25815C42.5546 8.25815 42.3223 8.02589 42.3223 7.74202C42.3223 7.45815 42.5546 7.22589 42.8385 7.22589C43.1223 7.22589 43.3546 7.45815 43.3546 7.74202C43.3546 8.02589 43.1223 8.25815 42.8385 8.25815Z" fill="#333333"/>
<path d="M49.5802 41.3225H14.4189V36.0967H49.5802V41.3225Z" stroke="#333333" stroke-width="2"/>
</g>
</svg>

<svg width="64" height="64" fill="none" xmlns="http://www.w3.org/2000/svg"><g opacity=".4"><path d="M45.419 0H18.58a6.2 6.2 0 00-6.193 6.194v4.129c0 3.046 2.212 5.58 5.113 6.093l-1.037 20.745h5.163l.568-11.355h19.611l.568 11.355h5.163L46.5 16.416c2.901-.513 5.113-3.047 5.113-6.093v-4.13A6.2 6.2 0 0045.42 0zM19.663 35.097h-1.03l.929-18.58h1.03l-.929 18.58zm2.996-18.58H41.34l.155 3.096H22.504l.155-3.097zm-.362 7.225l.104-2.065h19.198l.103 2.065H22.297zm22.04 11.355l-.93-18.58h1.03l.93 18.58h-1.03zm5.211-24.774a4.133 4.133 0 01-4.129 4.129H18.58a4.133 4.133 0 01-4.129-4.13V6.195a4.133 4.133 0 014.13-4.13h26.838a4.133 4.133 0 014.129 4.13v4.129zm-7.226 29.935H15.483v21.677c0 1.14.926 2.065 2.065 2.065h2.064a2.067 2.067 0 002.065-2.065V47.484h20.645v14.451c0 1.14.926 2.065 2.065 2.065h2.064a2.067 2.067 0 002.065-2.065V40.258h-6.194zm-22.71 21.677h-2.064V42.323h2.064v19.613zm2.065-16.516v-3.096h20.645v3.096H21.677zm24.774-3.096v19.612h-2.064V42.323h2.064z" fill="#333"/><path d="M21.16 5.161a2.583 2.583 0 00-2.58 2.581 2.583 2.583 0 002.58 2.58 2.583 2.583 0 002.581-2.58 2.583 2.583 0 00-2.58-2.58zm0 3.097a.518.518 0 01-.515-.516c0-.284.232-.516.516-.516.284 0 .516.232.516.516a.518.518 0 01-.516.516zm21.679-3.097a2.583 2.583 0 00-2.581 2.581 2.583 2.583 0 002.58 2.58 2.583 2.583 0 002.581-2.58 2.583 2.583 0 00-2.58-2.58zm0 3.097a.518.518 0 01-.517-.516.518.518 0 011.032 0 .518.518 0 01-.515.516z" fill="#333"/><path d="M49.58 41.322H14.42v-5.225h35.16v5.225z" stroke="#333" stroke-width="2"/></g></svg>
